X: 126002
M: C
L: 1/8
K: D
|: (de) |\
fgfe dedB | A2F2 F2(FE) |\
fgfe dedB | A2F2 F2(FE) |\
(ef) |\
gfeg fedf | edce Adfa |\
gfeg fedf | e2a2 a2(ef) |\
gfeg fedf | edce dcBd |\
cBAc BA^GB | BA^GA Bc"_D.C."de |]


